X: 29299
T: New Scotland Yard
R: reel
M: 4/4
K: Dmixolydian
|:ADD2 DEFG|ADFA BGAB|cABc A3B|cAAc dcAG|
ADD2 DEFG|ADFA BGAB|cABc dcAG|FGEF D2 FG:|
|:Addc d3c|AddB cAGE|GABG c3B|AddB cAGB|
Addc d3c|AddB cAGE|GABG cBAG|FGEF DEFG:|

